X: 1
T: Sandy's New Chanter
R: Reel
C: PM Tom MacAllister Jr.
M: 4/4
L: 1/8
K: HP
\
ag |: {g}f2 {g}ef {g}fA{g}df | {gf}g2 {a}fg {aBG}B2 {gf}g2 | {a}fA{g}df
{g}faga | eA{g}ce {g}eage |
\
| &quot;^2nd Time 2nd Part&quot; {g}f2 {g}ef {g}fA{g}df | {gf}g2 {a}fg {aBG}B2
{gf}g2 | {a}fA{g}df {g}eA{g}ce |1 {Gdc}d4 {gdG}d2 ag :|2 {Gdc}d4 {gdG}d2
A2 |
